!!!!SEGMENT: pl-sa--549-a-ix-29--034_anonim--andante.krn
!!!cenid: 18xx:488
!!!COM: Anonim
!!!COM-rismID: pe30004985
!!!CDT:
!!!CNT:
!!!OTL: Andante
!!!PDT:
!!!AGN: Secular
!!!SMS-siglum: PL-SA
!!!SMS-shelfmark: 549/A IX 29
!!!SMS-shelfwork: 034 W
!!!SMS-variant:
!!!SMS-altvar:
!!!NIFC-rismSourceID: 1001068923
!!!NIFC-islandoraID:
!!!URL-pdf-islandora:
!!!URL-scan: https://bc.bdsandomierz.pl/dlibra/publication/1441/edition/1409/content @EN{Scan in the Sandomierz Diocese Digital Library} @PL{Skany w portalu Cyfrowa Biblioteka Diecezjalna w Sandomierzu}
!!!ONB-nifc: Str. 24, s. 2-4
!!!OMD: Andante
!!!AIN: 1 piano
!!!key: G
**kern	**kern
*part1	*part1
*staff2	*staff1
*I"[Pianoforte]	*I"[Pianoforte]
*Ipiano	*Ipiano
*ICklav	*ICklav
*clefF4	*clefG2
*k[f#]	*k[f#]
*G:	*G:
*M2/4	*M2/4
=1	=1
*2\right	*2\right
!!LO:TX:t=P:problem:metrum zapisane ułamkiem
2G 2GG;/	2g 2B;/
=2	=2
2d 2B 2G\	4g/
.	8b\L
.	8dd\J
=3	=3
2c 2A 2D\	4dd\
.	4f#/
=4	=4
4B 4G\	8g/L
.	8g/J
4A 4E 4C\	16e/LL
.	16f#/
.	16g/
.	16a/JJ
=5	=5
4B 4G 4D\	4g/
.	32qqdd/LL
.	32qqcc/JJ
4A 4F# 4D\	16a\LL
.	16dd\
.	16cc\
.	16a\JJ
=6	=6
2d 2B 2G\	4b\
.	8ee\L
.	8dd\J
=7	=7
2c 2A 2D\	4dd\
.	4f#/
=8	=8
4B 4G\	8g/L
.	8g/J
4A 4E 4C\	16e/LL
.	16f#/
.	16g/
.	16a/JJ
=9	=9
4B 4G 4D\	4b\
.	16qqcc/LL
.	16qqb/JJ
4c 4A 4D\	8a\L
.	16a\L
.	16b\JJ
=10	=10
8c 8A\L	4cc\
8D\J	.
*rep	*
8c 8A\L	8a/L
8D\J	8f#/J
*Xrep	*
=11	=11
*rep	*
!	!LO:N:vis=8.
!	!LO:N:vis=8.
8c 8A\L	8d/L
8D\	16f#/L
.	16e/JJ
8c 8A\	16d/LL
.	16d/
8D\J	16e/
.	16f#/JJ
*Xrep	*
!!linebreak:original
=12	=12
8B 8G\L	8.g/L
8D\J	.
.	16g/Jk
*rep	*
8B 8G\L	8g\L
8D\J	16a\L
.	16b\JJ
*Xrep	*
=13	=13
8c 8A\L	8b/L
8D\J	8a/J
*rep	*
8c 8A\L	8.a\L
8D\J	.
.	16b\Jk
*Xrep	*
=14	=14
*rep	*
8c 8A\L	4cc/
8D\J	.
8c 8A\L	8a/L
8D\J	8f#/J
*Xrep	*
=15	=15
*rep	*
!	!LO:N:vis=8.
!	!LO:N:vis=8.
8c 8A\L	8d/L
8D\J	16f#/L
.	16e/JJ
8c 8A\L	16d/LL
.	16d/
8D\J	16e/
.	16f#/JJ
*Xrep	*
=16	=16
8B 8G\L	8g/L
8D\J	8g/J
*rep	*
8B 8G\L	16g\LL
.	16dd\
8D\J	16cc\
.	16b\JJ
*Xrep	*
=17	=17
*rep	*
!LO:SIC:v:s=8c 8A\L	!
8B 8G\L	4.a/
8D\J	.
!LO:SIC:v:s=8c 8A\L	!
8B 8G\L	.
8D\J	8a#X/
*Xrep	*
=18	=18
2d 2B 2G\	4b\
.	8ee\L
.	8dd\J
=19	=19
2c 2A 2D\	4dd\
.	4f#/
=20	=20
4B 4G\	8g/L
.	8g/J
4A 4E 4C\	16e/LL
.	16f#/
.	16g/
.	16a/JJ
=21	=21
4B 4G 4D\	4dd\
.	16qqcc/LL
.	16qqb/JJ
4c 4A 4D\	4a/
=22	=22
8G 8GG/L	4b 4g/
8Fn 8FFn/	.
8E 8EE/	8ccL 8g/
8D 8DD/J	8ddJ 8g/
=23	=23
4C 4CC/	8ee 8cc 8g/
.	4cc 4g 4e;/
4C 4CC;/	.
.	8ee\
!!linebreak:original
=24	=24
4B 4G\	4dd\
4c 4A 4D\	8.f#/L
.	16f#/Jk
=25	=25
16BLL 16G\	8g/L
16d\	.
16D\	8g/J
16d\JJ	.
*rep	*
16BLL 16G\	8r
16d\	.
!	!LO:N:vis=16.
16D\	16gg\LL
16d\JJ	16bb\JJ
*Xrep	*
=26	=26
16cLL 16A\	8.dd\L
16d\	.
16D\	.
16d\JJ	16ff#\Jk
*rep	*
16cLL 16A\	16ee\LL
16d\	16dd\
16D\	16cc\
16d\JJ	16b\JJ
*Xrep	*
=27	=27
16BLL 16G\	8ggsS\L
16d\	.
16D\	16bb\L
16d\JJ	16aa\JJ
*rep	*
16BLL 16G\	16gg\LL
16d\	16ff#\
16D\	16ee\
16d\JJ	16dd\JJ
*Xrep	*
=28	=28
4G 4D 4BB\	16dd\LL
.	16bb\
.	16aa\
.	16gg\JJ
4c 4A 4D\	16ff#\LL
.	16dd\
.	16ee\
.	16ff#\JJ
=29	=29
8G\L	4aa 4cc\
8D\J	.
4GG/	8gg 8b\
.	8r
=:|!;	=:|!;
*-	*-
!!!system-decoration: {(s1,s2)}
!!!RDF**kern: > = above
!!!RDF**kern: < = below
!!!ENC: Katarzyna Serwa
!!!END: 2022-01-05
!!!ENC: Anastazja Marusiak
!!!END: 2020-06-17
!!!YEC: Copyright 2022 Narodowy Instytut Fryderyka Chopina (https://polishscores.org)
!!!YEM: Licence CC BY 4.0 (https://creativecommons.org/licenses/by/4.0)
